X:1
T:Title
%%score ( 1 2 3 ) { ( 4 6 ) | 5 }
L:1/8
M:4/4
K:D
V:1 treble nm="Bright Piano"
V:2 treble 
V:3 treble 
V:4 bass nm="Bright Piano"
V:6 bass 
V:5 bass 
V:1
 z4 z2[Q:1/4=100] [DF]2 | [FB]2 [Fc]2 [Fd]2 [FB]2 | A3 G [DF]2 [A,A]2 | [B,D]3 C [B,D]2 E2 | %4
[M:3/4] [CF]4 [CF]2 |[M:1/4] [DF]2 |[M:4/4] [FB]2 [Fc]2 [Fd]2 [FB]2 | A3 G [DF]2 [A,A]2 | %8
 [B,D]3 C [B,D]2 E2 |[M:3/4] [CF]4 [CF]2 |[M:1/4] [DA]2 |[M:4/4] [Fd]2 A2 [GB]2 [DA]2 | %12
 G3 A [DF]2 A-[EA] | [Dd]2 [DA]2 [DB]2 [CA]2 | G4 z4 | [E^G]2 [E^A]2 BdcB |[M:3/4] [F^A]4 [FB]2 |] %17
V:2
 x8 | x8 | E2 C2 z4 | x8 |[M:3/4] x6 |[M:1/4] x2 |[M:4/4] x8 | E2 C2 z4 | x8 |[M:3/4] x6 | %10
[M:1/4] x2 |[M:4/4] x8 | D2 C2 z2 .F2 | x8 | D2 z A [DF]2 [DF]2 | z4 F2 =G2 |[M:3/4] x6 |] %17
V:3
 x8 | x8 | x8 | x8 |[M:3/4] x6 |[M:1/4] x2 |[M:4/4] x8 | x8 | x8 |[M:3/4] x6 |[M:1/4] x2 | %11
[M:4/4] x8 | x8 | x8 | z2 E2 z4 | x8 |[M:3/4] x6 |] %17
V:4
 z4 z2 B,2 | B,2 ^A,2 B,2 B,2 | E,2 A,2 A,2 E,2 | F,2 z A,, B,2 CB, |[M:3/4] B,2 ^G,2 ^A,2 | %5
[M:1/4] B,2 |[M:4/4] B,2 ^A,2 B,2 B,2 | E,2 A,2 A,2 E,2 | F,2 z A,, B,2 CB, | %9
[M:3/4] B,2 ^G,2 ^A,2 |[M:1/4] A,2 |[M:4/4] A,2 D2 D2 A,2 | B,2 A,2 A,2 A,2 | B,2 F,2 G,2 E,2 | %14
 B,2 A,2 A,2 B,2 | B,2[K:treble] C2 B,2 ED |[M:3/4] C4 D2 |] %17
V:5
 z4 z2 B,,2 | D,2 F,2 B,,2 D,2 | C,2 A,,2 D,2 C,2 | B,,4 G,,2 G,2 |[M:3/4] F,4 F,2 |[M:1/4] B,,2 | %6
[M:4/4] D,2 F,2 B,,2 D,2 | C,2 A,,2 D,2 C,2 | B,,4 G,,2 G,2 |[M:3/4] F,4 F,2 |[M:1/4] F,E, | %11
[M:4/4] D,2 F,2 G,2 F,2 | E,2 A,,2 D,2 D,C, | B,,2 D,2 G,,2 A,,2 | B,,2 C,2 D,2 B,,2 | %15
 E,2 C,2 D,2 E,2 |[M:3/4] F,2 F,,2 B,,2 |] %17
V:6
 x8 | x8 | x8 | z2 F,2 z4 |[M:3/4] x6 |[M:1/4] x2 |[M:4/4] x8 | x8 | z2 F,2 z4 |[M:3/4] x6 | %10
[M:1/4] x2 |[M:4/4] x8 | x8 | x8 | x8 | x2[K:treble] x6 |[M:3/4] x6 |] %17

